X:1
T:Title
%%score { ( 1 3 5 ) | ( 2 4 ) }
L:1/8
Q:1/4=112
M:4/4
K:Ab
V:1 treble nm="Grand Piano"
V:3 treble 
V:5 treble 
V:2 bass 
V:4 bass 
V:1
 [CE]2 [CEF]2 [CEG]2 [CEA]2 | [DEA]4 [DEG]4 | [DE]2 [DEG]2 [DEB]2 [EGd]2 | [EAc]6[K:bass] z2 | %4
w: Ira~B.~Wilson * * *||||
 [EAc]2 [EAc]2 [=EBc]2 [EBc]2 | [FAc]4 [CA]2- [CEA]2 | [=DF]2 [B,DF]2 [B,EG]2 [B,DA]2 | %7
w: |||
 [B,EGB]6[K:bass] z2 | [CE]2 [CEF]2 [CEG]2 [CEA]2 | [DEA]4 [DEG]4 | [DE]2 [DEG]2 [DEB]2 [EGd]2 | %11
w: ||||
 [EAc]6[K:bass] z2 | z4 B2 z2 | [DAd]4 [=DAB=d]4 | [EAce]2 [=DAc]2 [DA]2 [DGB]2 | e>e e2 e2 z2 | %16
w: |||||
 z2 [EGd]4 z2 | c2 B2 G2 E2 | z4 [CFAc]4 | [CEAc]6 z2 | [DEG]4 [DEA]4 | [DEB]4 [DE_c]4 | %22
w: ||||||
 [CEc]2 [EA]2 [DF]2 [=Ed]2 | [CEc]6 z2 | z2 [EGd]4 z2 | c2 B2 G2 E2 | [CF]4 [CFAc]4 | %27
w: |||||
 [CEAc]6[K:bass] z2 | z2 z c [E=Ad]2 [FAc]2 | [FAc]2 [=DAB]2 [DB]2 [DA]2 | [EAce]4 [DEG]4 | %31
w: ||||
 [CEA]6[K:bass] z2 |] %32
w: |
V:2
 [A,,A,]2 [E,,E,]2 [A,,A,]2 [E,,E,]2 | [B,,B,]2 [E,,E,]2 [B,,B,]2 [E,,E,]2 | %2
 [G,,G,]2 [E,,E,]2 [G,,G,]2 [E,,E,]2 | [A,,A,]2 E,,2 F,,2 G,,2 | %4
 [A,,A,]2 [E,,E,]2 [G,,G,]2 [C,,C,]2 | [F,,F,]2 [G,,G,]2 [A,,A,]2 [F,,F,]2 | %6
 [B,,B,]2 [A,,A,]2 [G,,G,]2 [F,,F,]2 | [E,,E,]2 D,,2 C,,2 B,,,2 | %8
 [A,,,A,,]2 [E,,E,]2 [A,,A,]2 [E,,E,]2 | [B,,B,]2 [E,,E,]2 [B,,B,]2 [E,,E,]2 | %10
 [G,,G,]2 [E,,E,]2 [G,,G,]2 [E,,E,]2 | [A,,A,]2 E,,2 F,,2 G,,2 | [A,,A,]2 [A,,A,]2 [_G,,_G,]4 | %13
 [F,,F,]2 [F,,F,]2 [=E,,=E,]2 [E,,E,]2 | [E,,E,]2 [F,,F,]2 [=E,,=E,]2 [_E,,_E,]2 | %15
 E>[K:treble]E E2 E2 z2 | [B,,,B,,]2 [E,G,B,]2 [E,G,]2[K:treble] [A,E_G]>[B,E=G] | %17
 [CEG]2 [B,DG]2 [G,DE]2[K:bass] [E,D]2 | A,,2 F,2 E,,2 F,2 | A,,2 E,2 E,2[K:treble] E>F | %20
 B,,2 E,2 E,,2 E,2 | G,,2 E,2 E,,2 E,2 | [A,,A,]2 [C,A,]2 [D,A,]2 [D,A,D]2 | [A,,A,]2 E,2 E,2 z2 | %24
 [B,,,B,,]2 [E,G,B,]2 [E,G,]2[K:treble] [=A,E_G]>[B,E=G] | [CEG]2 [B,DG]2 [G,DE]2[K:bass] [E,D]2 | %26
 A,,2 F,2 E,,2 F,2 | A,,2 A,,2 G,,2 _G,,2 | z2 F,2 z4 | [=D,,=D,]2 [B,,,B,,]2 [F,,F,]2 [=E,,=E,]2 | %30
 [E,,E,]4 [E,,E,]4 | [A,,A,]2 E,,2 A,,,2 z2 |] %32
V:3
 x8 | x8 | x8 | z2[K:bass] E,2 F,2 G,2 | x8 | z4 F2 z2 | x8 | z2[K:bass] D,2 C,2 B,,2 | x8 | x8 | %10
 x8 | z2[K:bass] E,2 F,2 G,2 | [EAc]2 [EAc]2 [CE]2- [CEA]2 | x8 | x8 | x8 | [EGd]2 z2 B,2 =A>B | %17
 x8 | [CF]4 z2 A,2 | z2 A,2 A,2 z2 | z2 B,2 z2 B,2 | z2 G,2 z2 G,2 | x8 | z2 A,2 A,2 z2 | %24
 [EGd]2 z2 B,2 =A>B | x8 | z2 A,2 z2 A,2 | z2[K:bass] A,2 G,2 _G,2 | [E=Ac]4 z4 | x8 | x8 | %31
 z2[K:bass] E,2 A,,2 z2 |] %32
V:4
 x8 | x8 | x8 | x8 | x8 | x8 | x8 | x8 | x8 | x8 | x8 | x8 | x8 | x8 | x8 | %15
 [A,,A,CA]6[K:treble] z2 | x6[K:treble] x2 | x6[K:bass] x2 | x8 | x6[K:treble] x2 | x8 | x8 | x8 | %23
 x8 | x6[K:treble] x2 | x6[K:bass] x2 | x8 | x8 | [F,,F,]2 z [E=A] [F,,F,]2 [E,,E,]2 | x8 | x8 | %31
 x8 |] %32
V:5
 x8 | x8 | x8 | x2[K:bass] x6 | x8 | x8 | x8 | x2[K:bass] x6 | x8 | x8 | x8 | x2[K:bass] x6 | x8 | %13
 x8 | x8 | x8 | x8 | x8 | x8 | x8 | x8 | x8 | x8 | x8 | x8 | x8 | x8 | x2[K:bass] x6 | z2 =A,2 z4 | %29
 x8 | x8 | x2[K:bass] x6 |] %32

